icon-themes/breeze_svg/cmd/lc_currencyfield.svg

<svg viewBox="0 0 24 24" xmlns="http://www.w3.org/2000/svg"><path d="m4 6a1 1 0 0 1 -1 1v1 8 1a1 1 0 0 1 1 1h1 15a1 1 0 0 1 1-1v-9-1a1 1 0 0 1 -1-1zm.7304688 1h14.5390622a2 2 0 0 0 .730469.7285156v8.5429684a2 2 0 0 0 -.730469.728516h-14.5390622a2 2 0 0 0 -.7304688-.728516v-8.5429684a2 2 0 0 0 .7304688-.7285156zm7.2695312 2a3 3 0 0 0 -3 3 3 3 0 0 0 3 3 3 3 0 0 0 3-3 3 3 0 0 0 -3-3zm0 1a2 2 0 0 1 2 2 2 2 0 0 1 -2 2 2 2 0 0 1 -2-2 2 2 0 0 1 2-2z" fill="#4d4d4d"/></svg>

<svg xmlns="http://www.w3.org/2000/svg" viewBox="0 0 24 24">
  <path
     style="fill:#4d4d4d"
     d="M 4 6 A 1 1 0 0 1 3 7 L 3 8 L 3 16 L 3 17 A 1 1 0 0 1 4 18 L 5 18 L 20 18 A 1 1 0 0 1 21 17 L 21 8 L 21 7 A 1 1 0 0 1 20 6 L 4 6 z M 4.7304688 7 L 19.269531 7 A 2 2 0 0 0 20 7.7285156 L 20 16.271484 A 2 2 0 0 0 19.269531 17 L 4.7304688 17 A 2 2 0 0 0 4 16.271484 L 4 7.7285156 A 2 2 0 0 0 4.7304688 7 z M 12 9 A 3 3 0 0 0 9 12 A 3 3 0 0 0 12 15 A 3 3 0 0 0 15 12 A 3 3 0 0 0 12 9 z M 12 10 A 2 2 0 0 1 14 12 A 2 2 0 0 1 12 14 A 2 2 0 0 1 10 12 A 2 2 0 0 1 12 10 z "
     />
</svg>
